icons/markup-fill.svg

<svg viewBox="0 0 24 24" fill="currentColor" xmlns="http://www.w3.org/2000/svg">
    <path d="M12 21.9967C6.47715 21.9967 2 17.5195 2 11.9967C2 6.47384 6.47715 1.99669 12 1.99669C17.5228 1.99669 22 6.47384 22 11.9967C22 17.5195 17.5228 21.9967 12 21.9967ZM17.051 18.2008L16.1894 14.7542C16.0781 14.309 15.6781 13.9967 15.2192 13.9967H8.78078C8.32191 13.9967 7.92193 14.309 7.81063 14.7542L6.94897 18.2008C8.32629 19.3235 10.0845 19.9967 12 19.9967C13.9155 19.9967 15.6737 19.3235 17.051 18.2008ZM10 11.9967H14V10.4967L12.9615 6.86202C12.8666 6.52981 12.6069 6.27014 12.2747 6.17522C11.7437 6.0235 11.1902 6.33099 11.0385 6.86202L10 10.4967V11.9967Z"/>
</svg>

<svg xmlns="http://www.w3.org/2000/svg" viewBox="0 0 24 24">
    <g>
        <path fill="none" d="M0 0h24v24H0z"/>
        <path d="M12 22C6.477 22 2 17.523 2 12S6.477 2 12 2s10 4.477 10 10-4.477 10-10 10zm5.051-3.796l-.862-3.447a1 1 0 0 0-.97-.757H8.781a1 1 0 0 0-.97.757l-.862 3.447A7.967 7.967 0 0 0 12 20a7.967 7.967 0 0 0 5.051-1.796zM10 12h4v-1.5l-1.038-3.635a1 1 0 0 0-1.924 0L10 10.5V12z"/>
    </g>
</svg>
